!!!OTL: 356. Ende der Franzosenherrschaft. 1813 (1871.)
!!!ARE: Europa, Mitteleuropa, Deutschland, Jena
!!!SCT: E0356
!!!TXL: @@DE
!!!YEM: Copyright 1995, estate of Helmut Schaffrath.
**kern	**text
*ICvox	*
*M2/4	*
*k[b-]	*
*F:	*
=1	=1
!LO:TX:a:t=Marſchtakt.	!
!LO:TX:a:t=Mel. 1813-15 in Jena von Studenten geſungen. Durch Dr. med. Dürre.	!
{4cc	Jhr
8aL	Fran-
8ccJ	.
=2	=2
8ffL	-ʒo-
8ccJ	.
8aL	-ſen
8fJ	.
=3	=3
4.cc	geht
8g	nach
=4	=4
(4b-/	Haus,
4a)}	.
=5	=5
{4cc	weils
8aL	mit.
8ccJ	.
=6	=6
8ffL	eu-
8ccJ	.
8aL	-rer
8fJ	.
=7	=7
4.cc	Macht
8g	iſt
=8	=8
(4b-/	aus!
4a)}	.
=9	=9
{8f	Laßt
8a	euch_mit
8a	eu-
8a	-ren
=10	=10
8a^	Frei-
8g	-heits-
8g	-kap-
8g}	-pen
=11	=11
{8g	nicht
8b-	im
8b-	deut-
8b-	-ſchen
=12	=12
8b-^	Reich
8a	er-
8a	-tap-
8a}	-pen,
=13	=13
{8a	weil
8cc	die
8cc	Deut-
8cc	-ſchen
=14	=14
8b	find
8ff	mit
4ff}	Macht
=15	=15
{8cc	ge-
8ff	-gen
8aa	euch
8ff	jetʒt
=16	=16
4cc	auf-
4gg	-ge-
=17	=17
4ff	-bracht.
4r}	.
==	==
!!!AGN: historisches Lied, Krieg gegen Frankreich (1813 und 1871)
!!!ONB: ESAC (Essen Associative Code) Database: ERK1
!!!AMT: simple duple
!!!AIN: vox
!!!EED: Helmut Schaffrath
!!!EEV: 1.0
!!!GTL: Historische Lieder
!!!URL-scan: https://rosdok.uni-rostock.de/mcrviewer/recordIdentifier/rosdok_ppn745177662/iview2/phys_0173.iview2?x=-554.0825755873236&y=1199.4321707517374&scale=0.46959934367803174&rotation=0&layout=singlePageLayout
!!!ENC: Anna Maria Matuszewska
!!!EEV: 2024/09/12
*-	*-
